static/assets/img/icons/theme/food/ice-cream-1.svg

<svg height="24" viewBox="0 0 24 24" width="24" xmlns="http://www.w3.org/2000/svg"><g fill="none" fill-rule="evenodd"><path d="m0 0h24v24h-24z" opacity="0"/><g fill="#000"><path d="m12.2016388 22.0491816 4.2983612-9.0491816h-9.5l4.2983612 9.0491816c.1184808.2494332.416734.3555911.6661672.2371103.1039736-.0493875.1877229-.1331367.2371104-.2371103z" opacity=".3"/><path d="m17 6h.5c1.3807119 0 2.5 1.11928813 2.5 2.5s-1.1192881 2.5-2.5 2.5h-11c-1.38071187 0-2.5-1.11928813-2.5-2.5s1.11928813-2.5 2.5-2.5h.5c0-2.76142375 2.23857625-5 5-5 2.7614237 0 5 2.23857625 5 5z"/></g></g></svg>

<svg width="24px" height="24px" viewBox="0 0 24 24" version="1.1" xmlns="http://www.w3.org/2000/svg" xmlns:xlink="http://www.w3.org/1999/xlink">
    <title>Icon For Ice-cream#1</title>
    <g stroke="none" stroke-width="1" fill="none" fill-rule="evenodd">
        <rect opacity="0" x="0" y="0" width="24" height="24"></rect>
        <path d="M12.2016388,22.0491816 L16.5,13 L7,13 L11.2983612,22.0491816 C11.416842,22.2986148 11.7150952,22.4047727 11.9645284,22.2862919 C12.068502,22.2369044 12.1522513,22.1531552 12.2016388,22.0491816 Z" fill="#000000" opacity="0.3"></path>
        <path d="M17,6 L17.5,6 C18.8807119,6 20,7.11928813 20,8.5 C20,9.88071187 18.8807119,11 17.5,11 L6.5,11 C5.11928813,11 4,9.88071187 4,8.5 C4,7.11928813 5.11928813,6 6.5,6 L7,6 C7,3.23857625 9.23857625,1 12,1 C14.7614237,1 17,3.23857625 17,6 Z" fill="#000000"></path>
    </g>
</svg>
